X:47
T:Reel 47
M:4/4
K:Dmaj
L:1/8
d2AG FGAF|EDGA BEEc|d2AG FGAF|GBAG FDDz|F2AG FGAF|EFGA BEEc|d2AG FGAF|GBAG FDDz|dcde dcdb|afeg fdec|dfaf dgag|afde fdd2|fedf afbf|gfed cdec|defg afba| (3fga eg fddB|
